!!!COM: Mozart, Wolfgang Amadeus
!!!OTL: String Quartet No. 15 in D Minor
!!!OMD: Allegretto ma non troppo
!!!OMV: 4
!!!SCT1: K<sup>1</sup> 421
!!!SCA: Chronologisch-thematisches Verzeichnis sämtlicher Tonwerke Wolfgang Amade Mozarts (L. von Köchel; 1862, 2/1905, 3/1937, 1947)
!!!SCT2: K<sup>6</sup> 417b
!!!YOR: Breitkopf & Härtel Edition
!!!ENC: Frances Bennion
!!!CDT: 1756/1/27/-1791/12/5/
!!!OCY: Österreich
!!!YEC: Copyright (c) 1994, 2000 Center for Computer Assisted Research in the Humanities
!!!YEM: Rights to all derivative editions reserved.
!!!YEM: Refer to licensing agreement for further details.
!!!YEN: United States of America
**kern	**kern	**kern	**kern
*k[b-]	*k[b-]	*k[b-]	*k[b-]
*d:	*d:	*d:	*d:
*clefC	*clefF	*clefG	*clefG
*M6/8	*M6/8	*M6/8	*M6/8
3..r	3..r	3..r	3..r
24r	24r	24r	24r
8r	8r	8r	8a
=1	=1	=1	=1
4d	8.f	4a	8.dd
.	16e	.	16cc#
8d	8f	8a	8dd
4d	8.d	4a	8.ff
.	16e	.	16ee
8d	8f	8a	8dd
=2	=2	=2	=2
4A	4e	4a	8.cc#
.	.	.	16dd
8A	8c#	8a	8ee
4A	4c#	4e	8a
.	.	.	8r
8A	8c#	8g	16aa
.	.	.	16aa
=3	=3	=3	=3
4D	4d	8.f#	8aa
.	.	.	8r
.	.	16d	.
8D	8c#	8e	16aa
.	.	.	16aa
4D	8.d	8.f	8aa
.	.	.	8r
.	16e	16g	.
8D	8d	8f	16aa
.	.	.	16aa
=4	=4	=4	=4
4AA	4c#	4e	4.aa
8A	8c#	8e	.
4AA	4c#	4a	8ee
.	.	.	8r
8A	8e	8c#	8a
=5	=5	=5	=5
4G	8.c#	4b-	8.ee
.	16d	.	16ff
8G	8e	8b-	8gg
4G	8.e	4b-	8.gg
.	16d	.	16ff
8G	8c#	8b-	8ee
=6	=6	=6	=6
4F	4d	4a	8.aa
.	.	.	16ff
8F	8d	8a	8dd
4F	4d	4a	8dd
.	.	.	8r
8F#	8a	8cc	16ddd
.	.	.	16ddd
=7	=7	=7	=7
4G	4g	4b	8ddd
.	.	.	8r
8G	8g	8b-	16ddd
.	.	.	16ddd
4A	4f	4a	8ddd
.	.	.	8r
8AA	8G	8c#	16ddd
.	.	.	16ddd
=8	=8	=8	=8
4DD	8.F	8.d	4.ddd
.	16G	16e	.
8D	8A	8f	.
8DD	8F	8d	8dd
8r	8r	8r	8r
8r	8r	8r	8dd
=9	=9	=9	=9
4D	8.d	4a	8.ff
.	16e	.	16gg
8D	8f	8a	8aa
4D	4d	8.a	8.ff
.	.	16g	16ee
8D	8a	8f	8dd
=10	=10	=10	=10
4E	4g	4b-	8dd
.	.	.	8cc
8E	8g	8b-	8cc
4E	4g	4b-	4cc
8E	8g	8b-	16ccc
.	.	.	16ccc
=11	=11	=11	=11
4F	8.f	8.a	8ccc
.	.	.	8r
.	16g	16b-	.
8F	8a	8cc	16ccc
.	.	.	16ccc
4F	8.A	8.f	8ccc
.	.	.	8r
.	16G	16e	.
8D	8F	8f	16ccc
.	.	.	16ccc
=12	=12	=12	=12
4C	4.f	4.a	4.ccc
8c	.	.	.
4c	4e	4g	4cc
8c	8c	8e	8gg
=13	=13	=13	=13
4B-	4d-	4e	8.bb-
.	.	.	16aa
8B-	8d-	8e	8gg
4B-	4d-	4e	4gg
8B-	8d-	8e	8gg
=14	=14	=14	=14
4B	4d	8.f	8.aa-
.	.	16g	16gg
8B	8d	8a-	8ff
4B	4d	4a-	4ff
8B	8d	8a-	8ff
=15	=15	=15	=15
4c	4c	4a	8.ff
.	.	.	16aa
8c	8c	8a	8ccc
4C	4c	4b-	8.cc
.	.	.	16dd
8C	8c	8b-	8ee
=16	=16	=16	=16
4F	[3..c	4.b-	4.ee
8C	.	.	.
4FF	.	4a	4ff
.	24c]	.	.
8r	8f	8cc	8aa
=17	=17	=17	=17
4F	8.f	[3..cc	8.aa
.	16g	.	16bb-
8F	8a	.	8ccc
4F	4a	.	8.ff
.	.	.	16gg
.	.	24cc]	.
8D	8f	8b	8aa
=18	=18	=18	=18
4C	4.f	2cc	4.aa
8c	.	.	.
4c	4e	.	4gg
.	.	8b-	.
8c#	8e	8g	8bb-
=19	=19	=19	=19
4d	[2.d	4f	16bb-
.	.	.	16aa
.	.	.	16gg
.	.	.	16ff
8c	.	8f#	16ee
.	.	.	16dd
4B	.	4g	8.dd
.	.	.	16cc#
8B-	.	8g#	8dd
=20	=20	=20	=20
4A	8.d]	4.g#	4.ff
.	16c#	.	.
8A	8B	.	.
4A	4c#	8a	4ee
.	.	4r	.
8A	8r	.	8A
=21	=21	=21	=21
4G	4B-	4e-	8.B-
.	.	.	16e-
8G	8B-	8e-	8g
4G	4B-	4e-	8.b-
.	.	.	16ee-
8G	8B-	8e-	8gg
=22	=22	=22	=22
4G	8.B-	8.e-	4.bb-
.	16e-	16g	.
8G	8g	8b-	.
4G	4.e	8.b-	8cc#
.	.	.	4r
.	.	16a	.
8G	.	8g	.
=23	=23	=23	=23
4A	4d	4f#	8aa
.	.	.	8r
8A	8d	8f	16aa
.	.	.	16aa
4AA	8.c#	8.e	8aa
.	.	.	8r
.	16A	16f	.
8AA	8G	8e	16aa
.	.	.	16aa
=24	=24	=24	=24
4D	4.G	4.e	4.aa
8AA	.	.	.
8DD	8F	8d	8dd
8r	8r	8r	8r
8r	8r	8r	8A
=25	=25	=25	=25
2.D	4.F	4.A	16d
.	.	.	16A
.	.	.	16f
.	.	.	16d
.	.	.	16a
.	.	.	16f
.	[4.A	4.f	16dd
.	.	.	16a
.	.	.	16ff
.	.	.	16dd
.	.	.	16cc#
.	.	.	16dd
=26	=26	=26	=26
2.AA	3..A_	8e	16cc#
.	.	.	16dd
.	.	8c#	16dd#
.	.	.	16ee
.	.	8c#	16dd#
.	.	.	16ee
.	.	4.c#	16a
.	.	.	16b-
.	.	.	16a
.	.	.	16g
.	24A]	.	.
.	8G	.	16f
.	.	.	16e
=27	=27	=27	=27
2.BB-	4.F	4.d	16d
.	.	.	16cc#
.	.	.	16dd
.	.	.	16cc#
.	.	.	16dd
.	.	.	16ee
.	4d	[4.dd	16ff
.	.	.	16ee
.	.	.	16ff
.	.	.	16ff#
.	8e	.	16gg
.	.	.	16gg#
=28	=28	=28	=28
2.AA	8f	8dd]	16gg#
.	.	.	16aa
.	8e	8ee	16gg#
.	.	.	16aa
.	8d	8ff	16gg#
.	.	.	16aa
.	4.a	4.cc#	4ee
.	.	.	8A
=29	=29	=29	=29
2.GG	4.c#	4.e	16B-
.	.	.	16c#
.	.	.	16e
.	.	.	16g
.	.	.	16b-
.	.	.	16cc#
.	4B-	8.c#	16ee
.	.	.	16gg
.	.	.	16bb-
.	.	16e	16gg
.	8r	16g	16ee
.	.	16e	16cc#
=30	=30	=30	=30
8FF	8A	8d	16dd
.	.	.	16c#
8r	8r	8r	16d
.	.	.	16c#
8FF#	8A	8c	16d
.	.	.	16c#
8GG	8G	8B-	16d
.	.	.	16cc#
8r	8r	8r	16dd
.	.	.	16cc#
8AA	8c	8f#	16dd
.	.	.	16cc#
=31	=31	=31	=31
8BB-	8B-	8g	16dd
.	.	.	16ee-
8r	8r	8r	16ee
.	.	.	16ff
8B-	4d	8g	16ff#
.	.	.	16gg
8A	.	8f	16gg#
.	.	.	16aa
8r	8r	8r	16bb-
.	.	.	16bb
8AA	8G	8e	16ccc
.	.	.	16ccc#
=32	=32	=32	=32
4D	4.G	4.e	4ccc#
8AA	.	.	8ddd
8DD	8F	8d	8dd
8r	8r	8r	8r
8r	8r	8r	8d
=33	=33	=33	=33
2.D	4.F	4.A	16f
.	.	.	16d
.	.	.	16a
.	.	.	16f
.	.	.	16dd
.	.	.	16a
.	4.A	4d	16ff
.	.	.	16aa
.	.	.	16gg
.	.	.	16ff
.	.	8f	16ee
.	.	.	16dd
=34	=34	=34	=34
4.E	[3..G	4.g	16dd
.	.	.	16cc
.	.	.	16cc
.	.	.	16cc
.	.	.	16cc
.	.	.	16cc
4.C	.	4.e	16b
.	.	.	16cc
.	.	.	16dd
.	.	.	16cc
.	24G]	.	.
.	8c	.	16b-
.	.	.	16g
=35	=35	=35	=35
2FF	2c	2f	16a
.	.	.	16f
.	.	.	16cc
.	.	.	16a
.	.	.	16ff
.	.	.	16cc
.	.	.	16aa
.	.	.	16ff
8A	8c	8f	16ccc
.	.	.	16ccc
8F	8f	8a	16ccc
.	.	.	16ccc
=36	=36	=36	=36
4.c	4.f	4a	4ccc
.	.	8f	32bb-
.	.	.	32aa
.	.	.	32gg
.	.	.	32aa
8C	8e	8cc	4gg
8r	8r	8r	.
8c	8e	8cc	8gg
=37	=37	=37	=37
4B-	4e	4dd-	16gg
.	.	.	16bb-
.	.	.	16ddd-
.	.	.	16bb-
8c	16e	8cc	16gg
.	16f	.	16ff
4d-	4g	4b-	8ee
.	.	.	8r
8D-	8g	8b-	8ee
=38	=38	=38	=38
4D	4a-	4b	16ff
.	.	.	16gg
.	.	.	16aa-
.	.	.	16ff
8D	8f	8a-	16dd
.	.	.	16cc
4D	4A-	4f	8b
.	.	.	8r
8D	8A-	8f	8b
=39	=39	=39	=39
4C	4A	4f	16cc
.	.	.	16ff
.	.	.	16aa
.	.	.	16ff
8C	8A	8f	16cc
.	.	.	16a
4C	4G	4e	16cc
.	.	.	16b-
.	.	.	16dd
.	.	.	16b-
8C	8c	8B-	16g
.	.	.	16e
=40	=40	=40	=40
4F	2c	4.B-	4.g
8C	.	.	.
8FF	.	8A	8f
4r	4r	4r	8r
.	.	.	8c
=41	=41	=41	=41
4F	8A	8c	16f
.	.	.	16a
.	8f	8a	16cc
.	.	.	16a
8F	8a	8cc	16ff
.	.	.	16cc
8F	4cc	8ff	16aa
.	.	.	16ff
8A	.	8ff	16ccc
.	.	.	16ccc
8F	8a	8ff	16ccc
.	.	.	16ccc
=42	=42	=42	=42
4c	4.a	4.ff	4ccc
8c	.	.	32bb-
.	.	.	32aa
.	.	.	32gg
.	.	.	32aa
4C	4cc	4ee	4gg
8C#	8e	8g	8A
=43	=43	=43	=43
4D	8A	8f	16d
.	.	.	16f
.	8d	8f	16a
.	.	.	16f
8D	8f	8a	16dd
.	.	.	16a
8D	4a	8dd	16ff
.	.	.	16dd
8F	.	8dd	16aa
.	.	.	16aa
8D	8f	8dd	16aa
.	.	.	16aa
=44	=44	=44	=44
4A	4.f	4.dd	4aa
8A	.	.	32gg
.	.	.	32ff
.	.	.	32ee
.	.	.	32ff
4AA	8a	8cc#	4ee
.	4r	4r	.
8AA	.	.	8A
=45	=45	=45	=45
4GG	2.B-	2.e-	16B-
.	.	.	16d
.	.	.	16e-
.	.	.	16f#
8GG	.	.	16g
.	.	.	16a
4GG	.	.	16b-
.	.	.	16dd
.	.	.	16ee-
.	.	.	16ff#
8GG	.	.	16gg
.	.	.	16aa
=46	=46	=46	=46
8G	8c#	8e	16bb-
.	.	.	16gg
4r	4r	4r	16ee
.	.	.	16cc#
.	.	.	16ff
.	.	.	16ff
8G#	8B	8d	16ff
.	.	.	16dd
4r	4r	4r	16b
.	.	.	16g#
.	.	.	16dd
.	.	.	16dd
=47	=47	=47	=47
4.A	4.d	4.f	16dd
.	.	.	16cc#
.	.	.	16cc
.	.	.	16b
.	.	.	16b-
.	.	.	16a
4.AA	4c#	4e	16g#
.	.	.	16a
.	.	.	16b-
.	.	.	16a
.	8G	8c#	16g
.	.	.	16e
=48	=48	=48	=48
4D	4.G	4.c#	4.e
8AA	.	.	.
8DD	8F	8d	8d
8r	8r	8r	8r
8r	8r	[8A	[8a
=49	=49	=49	=49
8D	8A	16A]	8a]
.	.	16d	.
4r	8F	16f	8dd
.	.	8a	.
.	8D	.	4ff
.	.	16f	.
8D	8A	16A	.
.	.	16d	.
4r	8F	16f	8dd
.	.	8a	.
.	8D	.	[8b-
.	.	16f	.
=50	=50	=50	=50
8D	8B-	16B-	8b-]
.	.	16e	.
4r	8G	16g	8ee
.	.	8b-	.
.	8E	.	4gg
.	.	16g	.
8C#	8A	16A	.
.	.	16c#	.
4r	8G	16e	8ee
.	.	8g	.
.	8E	.	[8a
.	.	16e	.
=51	=51	=51	=51
8D	8A	16d	8a]
.	.	16f	.
4r	8F	16a	8dd
.	.	8dd	.
.	8D	.	4ff
.	.	16f	.
8D	8f	16a	.
.	.	16dd	.
4r	8d	16ff	8aa
.	.	8aa	.
.	8A	.	8ddd
.	.	16f	.
=52	=52	=52	=52
8AA	8e	16e	8ccc#
.	.	16a	.
4r	8c#	16cc#	8eee
.	.	8ee	.
.	8A	.	8aaa
.	.	16a	.
8AA	8a	16cc#	8aaa
.	.	16ee	.
4r	8e	16aa	4r
.	.	8ccc#	.
.	8c#	.	.
.	.	16a	.
=53	=53	=53	=53
8G	8B-	24b-	4bb-
.	.	24cc#	.
.	.	24ee	.
8c#	8e	24b-	.
.	.	24cc#	.
.	.	24ee	.
8e	8g	24b-	16.gg
.	.	24cc#	.
.	.	24ee	.
.	.	.	32aa
8g	8b-	24b-	8bb-
.	.	24cc#	.
.	.	24ee	.
4r	4r	24b-	8gg
.	.	24cc#	.
.	.	24ee	.
.	.	24b-	8ee
.	.	24cc#	.
.	.	24ee	.
=54	=54	=54	=54
8F	8A	24a	4aa
.	.	24cc#	.
.	.	24dd	.
8A	8d	24a	.
.	.	24cc#	.
.	.	24dd	.
8d	8f	24a	16.ff
.	.	24cc#	.
.	.	24dd	.
.	.	.	32gg
8f	8a	24a	8aa
.	.	24cc#	.
.	.	24dd	.
4r	4r	24a	8ff
.	.	24cc#	.
.	.	24dd	.
.	.	24a	8dd
.	.	24cc#	.
.	.	24dd	.
=55	=55	=55	=55
8G	8g	24b-	8ee-
.	.	24cc	.
.	.	24b-	.
8C#	8e	24b-	8gg
.	.	24cc	.
.	.	24b-	.
8D	8f	24a	8ff
.	.	24b-	.
.	.	24a	.
8G	8b-	24g	8ee
.	.	24a	.
.	.	24g	.
8A	8a	24f	8dd
.	.	24g	.
.	.	24f	.
8AA	8g	24e	8cc#
.	.	24f	.
.	.	24e	.
=56	=56	=56	=56
8D	8f	24d	8dd
.	.	24c#	.
.	.	24d	.
8AA	8A 8F	24f	8ff
.	.	24e	.
.	.	24f	.
8FF	8A 8F	24a	8aa
.	.	24g#	.
.	.	24a	.
8DD	8A 8F	8dd	8ddd
8r	8r	8r	8r
8r	8r	[8A	[8a
=57	=57	=57	=57
8D	8A	16A]	8a]
.	.	16d	.
4r	8F	16f	8dd
.	.	8a	.
.	8D	.	4ff
.	.	16f	.
8D	8A	16A	.
.	.	16d	.
4r	8F	16f	8ee
.	.	8a	.
.	8D	.	[8dd
.	.	16f	.
=58	=58	=58	=58
8E	8B-	16G	8dd]
.	.	16B-	.
4r	8G	16d	8gg
.	.	8g	.
.	8E	.	4ddd
.	.	16d	.
8E	8g	16B-	.
.	.	16c	.
4r	8e	16g	8ccc
.	.	8cc	.
.	8c	.	[8bb-
.	.	16g	.
=59	=59	=59	=59
8F	8f	16c	8bb-]
.	.	16e	.
4r	8c	16f	8aa
.	.	8a	.
.	8A	.	4ccc
.	.	16f	.
8D	8c	16A	.
.	.	16c	.
4r	8A	16f	8ff
.	.	8a	.
.	8F	.	8ccc
.	.	16f	.
=60	=60	=60	=60
8C	8c	16c	4.aa
.	.	16f	.
4r	8A	16a	.
.	.	8cc	.
.	8F	.	.
.	.	16f	.
8C	8c	16c	8gg
.	.	16e	.
4r	8G	16g	4r
.	.	8cc	.
.	8E	.	.
.	.	16e	.
=61	=61	=61	=61
8BB-	8G	24G	4ddd-
.	.	24B-	.
.	.	24d-	.
8E	8B-	24G	.
.	.	24B-	.
.	.	24d-	.
8G	8e	24G	16.bb-
.	.	24B-	.
.	.	24d-	.
.	.	.	32ccc
8B-	8g	24G	8ddd-
.	.	24B-	.
.	.	24d-	.
4r	4r	24G	8bb-
.	.	24B-	.
.	.	24d-	.
.	.	24G	8gg
.	.	24B-	.
.	.	24d-	.
=62	=62	=62	=62
8D	8F	24A-	4aa-
.	.	24B	.
.	.	24d	.
8F	8B	24A-	.
.	.	24B	.
.	.	24d	.
8B	8d	24A-	16.ff
.	.	24B	.
.	.	24d	.
.	.	.	32gg
8d	8f	24A-	8aa-
.	.	24B	.
.	.	24d	.
4r	4r	24A-	8ff
.	.	24B	.
.	.	24d	.
.	.	24A-	8b
.	.	24B	.
.	.	24d	.
=63	=63	=63	=63
4.c	2.c	24a	8cc
.	.	24b-	.
.	.	24a	.
.	.	24g	8b-
.	.	24a	.
.	.	24g	.
.	.	24f	8a
.	.	24g	.
.	.	24f	.
4.C	.	24B-	8g
.	.	24c	.
.	.	24B-	.
.	.	24A	8f
.	.	24B-	.
.	.	24A	.
.	.	24G	8e
.	.	24A	.
.	.	24G	.
=64	=64	=64	=64
8F	8c	24A	8f
.	.	24G	.
.	.	24A	.
8C	8c	24c	8a
.	.	24B-	.
.	.	24c	.
8AA	8c	24f	8cc
.	.	24e	.
.	.	24f	.
8FF	8c	8a	8ff
4r	4r	8r	8r
.	.	[8c	[8a
=65	=65	=65	=65
8F	8c	16c]	8a]
.	.	16f	.
4r	8A	16a	8cc
.	.	8cc	.
.	8F	.	4ff
.	.	16a	.
8F	8c	16A	.
.	.	16c	.
4r	8A	16f	8aa
.	.	8a	.
.	8F	.	[8ccc
.	.	16f	.
=66	=66	=66	=66
8C	8A	16A	16ccc]
.	.	16c	16bb
4r	8F	16f	16ccc
.	.	8a	16bb
.	8C	.	16ccc
.	.	16f	16aa
8C#	8A	16A	8gg
.	.	16c#	.
4r	8E	16e	8r
.	.	8g	.
.	8C#	.	[8a
.	.	16e	.
=67	=67	=67	=67
8D	8A	16A	8a]
.	.	16d	.
4r	8F	16f	8cc#
.	.	8a	.
.	8D	.	4dd
.	.	16f	.
8D	8A	16A	.
.	.	16c#	.
4r	8F	16d	8ff
.	.	8f	.
.	8D	.	[8aa
.	.	16d	.
=68	=68	=68	=68
8AA	8d	16A	16aa]
.	.	16c#	16gg#
4r	8A	16d	16aa
.	.	8f	16gg#
.	8F	.	16aa
.	.	16d	16ff
8AA	8c#	16c#	8ee
.	.	16e	.
4r	8A	16a	4r
.	.	8cc#	.
.	8E	.	.
.	.	16a	.
=69	=69	=69	=69
8G	8B-	24b-	4bb-
.	.	24cc#	.
.	.	24ee	.
8c#	8e	24b-	.
.	.	24cc#	.
.	.	24ee	.
8e	8g	24b-	16.gg
.	.	24cc#	.
.	.	24ee	.
.	.	.	32aa
8g	8b-	24b-	8bb-
.	.	24cc#	.
.	.	24ee	.
4r	4r	24b-	8gg
.	.	24cc#	.
.	.	24ee	.
.	.	24b-	8ee
.	.	24cc#	.
.	.	24ee	.
=70	=70	=70	=70
8GG#	8B	24d	4fff
.	.	24f	.
.	.	24g#	.
8BB	8D	24d	.
.	.	24f	.
.	.	24g#	.
8D	8F	24d	16.ddd
.	.	24f	.
.	.	24g#	.
.	.	.	32eee
8G#	8B	24d	8fff
.	.	24f	.
.	.	24g#	.
8B	8d	24d	8ddd
.	.	24f	.
.	.	24g#	.
8d	8f	24d	8gg#
.	.	24f	.
.	.	24g#	.
=71	=71	=71	=71
4.A	[2.a	24ff	8aa
.	.	24gg	.
.	.	24ff	.
.	.	24ee	8gg
.	.	24ff	.
.	.	24ee	.
.	.	24dd	8ff
.	.	24ee	.
.	.	24dd	.
4.AA	.	24g	8ee
.	.	24a	.
.	.	24g	.
.	.	24f	8dd
.	.	24g	.
.	.	24f	.
.	.	24e	8cc#
.	.	24f	.
.	.	24e	.
=72	=72	=72	=72
8D	8a]	24d	8dd
.	.	24c#	.
.	.	24d	.
8AA	8A 8F	24f	8ff
.	.	24e	.
.	.	24f	.
8FF	8A 8F	24a	8aa
.	.	24g#	.
.	.	24a	.
8DD	8A 8F	8dd	8ddd
8r	8r	8r	8r
8r	8A	8r	8r
=73	=73	=73	=73
8r	8A	8r	8r
8D	8d	8A	8f
8D	8r	8A	8f
8r	8f	8r	8r
8D	8d	8A	8f
8D	8r	8A	8f
=74	=74	=74	=74
8r	16c#	8r	8r
.	16e	.	.
8AA	16a	8c#	8e
.	16a	.	.
8AA	16a	8c#	8e
.	16a	.	.
8r	4a	8r	8r
8AA	.	8c#	8e
8AA	24g	8c#	8e
.	24f	.	.
.	24e	.	.
=75	=75	=75	=75
8r	8d	8r	8r
8BB-	8dd	8f	8dd
8BB-	8r	8d	8f
8r	8ff	8r	8r
8BB-	8g#	8f	8dd
8BB-	8r	8dd	8gg#
=76	=76	=76	=76
8AA	32e	8cc#	8aa
.	16.a	.	.
8AA	32e	8cc#	8aa
.	16.cc#	.	.
8AA	32e	8cc#	8aa
.	16.ee	.	.
4AA	4a	4cc#	4aa
8r	8r	8a	8aa
=77	=77	=77	=77
8r	8r	8b-	8bb-
8C#	8g 8B-	8e	8ee
8C#	8g 8B-	8r	8r
8r	8r	8b-	8bb-
8C#	8g 8B-	8e	8ee
8C#	8g 8B-	8r	8r
=78	=78	=78	=78
8r	8r	16a	16aa
.	.	16d	16dd
8D	8f 8A	16d	16dd
.	.	16d	16dd
8D	8f 8A	16d	16dd
.	.	16d	16dd
8r	8r	16a	16aa
.	.	16d	16dd
8D	8f 8A	16d	16dd
.	.	16d	16dd
8D	8f 8A	16d	16dd
.	.	16d	16dd
=79	=79	=79	=79
4.GG	4.B-	8.e	8.ee
.	.	16f	16ff
.	.	[8g	[8gg
4.AA	8C#	8g]	8gg]
.	8E	8e	8ee
.	8G	8c#	8cc#
=80	=80	=80	=80
4D	[4.A 4.G	4.e	4.ee
8AA	.	.	.
8DD	8A] 8F	8d	8dd
8r	8r	8r	8r
8r	8A	8r	8r
=81	=81	=81	=81
8r	8A	8r	8r
8D	8d	8A	8f
8D	8r	8A	8f
8r	8f	8r	8r
8D	8d	8A	8f
8D	8r	8A	8f
=82	=82	=82	=82
4.EE	16C	2.g 2.c	2.b-
.	16E	.	.
.	16G	.	.
.	16c	.	.
.	16e	.	.
.	16g	.	.
4.E	16b-	.	.
.	16g	.	.
.	16e	.	.
.	16c	.	.
.	16B-	.	.
.	16G	.	.
=83	=83	=83	=83
8r	8A	8r	8r
8F	8cc	8a	8ff
8F	8r	8c	8a
8r	8G	8r	8r
8BB-	8dd	8d	8g
8BB-	8r	8g	8dd
=84	=84	=84	=84
4.C	4f	4.A	8r
.	.	.	8c
.	32e	.	8c
.	32f	.	.
.	32g	.	.
.	32f	.	.
8CC	4e	4G	4c
4r	.	.	.
.	8r	8cc	8ccc
=85	=85	=85	=85
8r	8r	8dd-	8ddd-
8E	8d-	8g	8gg
8E	8c	8r	8r
8r	8r	8dd-	8ddd-
8E	8d-	8g	8gg
8E	8c	8r	8r
=86	=86	=86	=86
8r	8r	16a-	16aa-
.	.	16B	16b
8D	8A- 8F	16B	16b
.	.	16B	16b
8D	8A- 8F	16B	16b
.	.	16B	16b
8r	8r	16a-	16aa-
.	.	16B	16b
8D	8A- 8F	16B	16b
.	.	16B	16b
8D	8A- 8F	16B	16b
.	.	16B	16b
=87	=87	=87	=87
4C	4A 4F	16c	16cc
.	.	16cc	16ccc
.	.	16cc	16ccc
.	.	16cc	16ccc
2r	8r	16cc	16ccc
.	.	16cc	16ccc
.	16C	8cc	8ccc
.	16c	.	.
.	16c	8r	8r
.	16c	.	.
.	16c	8B-	8e
.	16c	.	.
=88	=88	=88	=88
16FF	2c	4.B-	4.e
16F	.	.	.
16F	.	.	.
16F	.	.	.
16F	.	.	.
16F	.	.	.
8F	.	8A	16f
.	.	.	16ff
4r	8r	4r	16ff
.	.	.	16ff
.	8F	.	16ff
.	.	.	16ff
=89	=89	=89	=89
2.r	8A	2.r	8ff
.	8c	.	3..r
.	8e	.	.
.	16f	.	.
.	16g	.	.
.	16a-	.	.
.	16a	.	.
.	16b-	.	.
.	16b	.	.
.	.	.	24r
=90	=90	=90	=90
2C	[6..cc	8A	4.f
.	.	8B-	.
.	.	8B	.
.	48cc]	.	.
.	32b-	.	.
.	32a	.	.
.	8g	16c	16e
.	.	16e	16g
8r	8r	16e	16g
.	.	16e	16g
8AA	8C#	16e	16g
.	.	16e	16g
=91	=91	=91	=91
8DD	8D	8d	8f
4r	8F	3..r	3..r
.	8A	.	.
4.BB-	16d	.	.
.	16e	.	.
.	16f	.	.
.	16f#	.	.
.	16g	.	.
.	16g#	.	.
.	.	24r	24r
=92	=92	=92	=92
2AA	[6..a	[6..f	16dd
.	.	.	16ee
.	.	.	16ff
.	.	.	16ff#
.	.	.	16gg
.	48a]	48f]	.
.	32g	32e	16gg#
.	32f	32d	.
.	8e	16c#	16aa
.	.	16a	16aa
4r	4r	16a	16aa
.	.	16a	16aa
.	.	16a	16aa
.	.	16a	16aa
=93	=93	=93	=93
8r	8r	8b-	8bb-
8E	8G	8c#	8cc#
8E	8B-	8r	8r
8r	8r	8b-	8bb-
8E	8G	8c#	8cc#
8E	8B-	8r	8r
=94	=94	=94	=94
8r	8r	16f	16ff
.	.	16G#	16g#
8BB	8D	16G#	16g#
.	.	16G#	16g#
8BB	8F	16G#	16g#
.	.	16G#	16g#
8r	8r	16f	16ff
.	.	16G#	16g#
8BB	8D	16G#	16g#
.	.	16G#	16g#
8BB	8F	16G#	16g#
.	.	16G#	16g#
=95	=95	=95	=95
4AA	4F	16A	16a
.	.	16a	16aa
.	.	16a	16aa
.	.	16a	16aa
2r	8r	16a	16aa
.	.	16a	16aa
.	16A	8a	8aa
.	16a	.	.
.	16a	8r	8r
.	16a	.	.
.	16a	8e	8cc#
.	16a	.	.
=96	=96	=96	=96
16DD	4.g	4.e	4.cc#
16D	.	.	.
16D	.	.	.
16D	.	.	.
16D	.	.	.
16D	.	.	.
8D	8f	8d	8dd
8r	8r	8r	8r
8r	8r	8A	8a
=97	=97	=97	=97
2.D	2.f# [2.A	8d	8dd
.	.	8c#	8cc#
.	.	8d	8dd
.	.	8f#	8ff#
.	.	8e	8ee
.	.	[8d	[8dd
=98	=98	=98	=98
2.AA	4.g 4.A]	8d]	8dd]
.	.	16c#	16cc#
.	.	16d	16dd
.	.	8e	8ee
.	4.e 4.G	8.A	8.a
.	.	16B	16b
.	.	8c#	8cc#
=99	=99	=99	=99
4.BB	4.d 4.F#	16d	16dd
.	.	16c#	16cc#
.	.	16d	16dd
.	.	16B	16b
.	.	16c#	16cc#
.	.	16d	16dd
8C#	8A	8e	8ee
8D	8A	8f#	8ff#
8E	8d	8g#	8gg#
=100	=100	=100	=100
2AA	4.d	4g#	4gg#
.	.	8a	8aa
.	8c#	8A	8a
4r	4r	8r	8r
.	.	8a	8aa
=101	=101	=101	=101
16g	2.r	8a	8aa
16f#	.	.	.
16g	.	8b	8bb
16f#	.	.	.
16e	.	8g	8gg
16d	.	.	.
16c#	.	8.e	8.ee
16B	.	.	.
16c#	.	.	.
16B	.	16f#	16ff#
16A	.	8g	8gg
16G	.	.	.
=102	=102	=102	=102
16F#	2.r	8g	8gg
16E	.	.	.
16F#	.	8a	8aa
16E	.	.	.
16D	.	8f#	8ff#
16C#	.	.	.
16BB	.	8.d	8.dd
16AA	.	.	.
16BB	.	.	.
16AA	.	16e	16ee
16GG	.	8f#	8ff#
16FF#	.	.	.
=103	=103	=103	=103
8EE	16cc#	8g	8gg
.	16a	.	.
8r	16b	8r	8r
.	16cc#	.	.
8FF#	16dd	8a	8ff#
.	16cc#	.	.
8GG	16b	16g	8ee
.	16a	16f#	.
8r	16g	16e	8r
.	16f#	16d	.
8AA	16e	16c#	8cc#
.	16g	16e	.
=104	=104	=104	=104
8D	16f#	8.d	8.dd
.	16d	.	.
8D	16A	.	.
.	16d	16f#	16ff#
8D	16f#	16a	16aa
.	16a	16f#	16ff#
8D	8f#	8d	8dd
8r	8r	8r	8r
8r	8f#	8a	8dd
=105	=105	=105	=105
4.r	4f#	4a	4dd
.	8e	8g#	8cc#
8D	8d	8f#	8b
8E	8c#	8e	8a
8E	8B	8d	8g#
=106	=106	=106	=106
8A	8A	8c#	16a
.	.	.	16cc#
8E	8A	8c#	16ee
.	.	.	16ee
8C#	8A	8c#	16ee
.	.	.	16ee
8AA	8A	8c#	8ee
8r	8r	8r	8dd#
8r	8f#	8a	8dd
=107	=107	=107	=107
4.r	4f#	4a	4dd
.	8e	8g#	8cc#
8D	8d	8f#	8b
8E	8c#	8e	8a
8EE	8B	8d	8g#
=108	=108	=108	=108
8AA	8A	8c#	16a
.	.	.	16ee
8C#	8e	8cc#	16aa
.	.	.	16aa
8E	8e	8cc#	16aa
.	.	.	16aa
4A	4e	4cc#	4aa
8r	8r	8a#	8aa#
=109	=109	=109	=109
16g	2.r	8a#	8aa#
16f#	.	.	.
16g	.	8b	8bb
16f#	.	.	.
16e	.	8g	8gg
16d	.	.	.
16c#	.	8.e	8.ee
16B	.	.	.
16c#	.	.	.
16B	.	16f#	16ff#
16A	.	8g	8gg
16G	.	.	.
=110	=110	=110	=110
16F#	2.r	8g#	8gg#
16E	.	.	.
16F#	.	8a	8aa
16E	.	.	.
16D	.	8f#	8ff#
16C#	.	.	.
16BB	.	8.d	8.dd
16AA	.	.	.
16BB	.	.	.
16AA	.	16e	16ee
16GG	.	8f#	8ff#
16FF#	.	.	.
=111	=111	=111	=111
8EE	16cc#	8g	8gg
.	16a	.	.
8r	16b	8r	8r
.	16cc#	.	.
8FF#	16dd	8a	8ff#
.	16cc#	.	.
8GG	16b	16g	8ee
.	16a	16f#	.
8r	16g	16e	8r
.	16f#	16d	.
8AA	16e	16c#	8cc#
.	16g	16e	.
=112	=112	=112	=112
8D	16f#	8.d	8.dd
.	16d	.	.
8D	16A	.	.
.	16d	16f#	16ff#
8D	16f#	16a	16aa
.	16a	16f#	16ff#
8D	8f#	8d	8dd
8r	8r	8r	8r
8r	8r	8r	8a
=113	=113	=113	=113
4d	8.f	4a	8.dd
.	16e	.	16cc#
8d	8f	8a	8dd
4d	8.d	4a	8.ff
.	16e	.	16ee
8d	8f	8a	8dd
=114	=114	=114	=114
4A	4e	4a	8.cc#
.	.	.	16dd
8A	8c#	8a	8ee
4A	4c#	4e	4a
8A	8c#	8g	24aa
.	.	.	24aa
.	.	.	24aa
=115	=115	=115	=115
4D	4d	8.f#	8aa
.	.	.	8r
.	.	16d	.
8D	8c#	8e	24aa
.	.	.	24aa
.	.	.	24aa
4D	8.d	8.f	8aa
.	.	.	8r
.	16e	16g	.
8D	8d	8f	24aa
.	.	.	24aa
.	.	.	24aa
=116	=116	=116	=116
4AA	4c#	4e	4.aa
8AA	8c#	8e	.
4AA	4c#	4a	8ee
.	.	.	8r
8A	8e	8c#	8a
=117	=117	=117	=117
4G	8.c#	4b-	8.ee
.	16d	.	16ff
8G	8e	8b-	8gg
4G	8.e	4b-	8.gg
.	16d	.	16ff
8G	8c#	8b-	8ee
=118	=118	=118	=118
4F	4d	4a	8.aa
.	.	.	16ff
8F	8d	8a	8dd
4F	4d	4a	4dd
8F#	8a	8cc	24ddd
.	.	.	24ddd
.	.	.	24ddd
=119	=119	=119	=119
4G	4g	4b	8ddd
.	.	.	8r
8G#	8f	8dd	24ddd
.	.	.	24ddd
.	.	.	24ddd
4A	4d	4f	8ddd
.	.	.	8r
8AA	8G	8e	24ddd
.	.	.	24ddd
.	.	.	24ddd
=120	=120	=120	=120
4D	4.G	4.e	4.ddd
8AA	.	.	.
8DD	8F	8d	8dd
4r	8r	8r	8r
.	24a	[8ff	8aa
.	24a	.	.
.	24a	.	.
=121	=121	=121	=121
2.r	8a	8ff]	8gg#
.	8r	8ee	8r
.	24a	[8ee	8gg
.	24a	.	.
.	24a	.	.
.	8a	8ee]	8ff#
.	8r	8dd#	8r
.	24a	[8dd	8ff
.	24a	.	.
.	24a	.	.
=122	=122	=122	=122
3..r	4.a	8.dd]	[3..ee
.	.	16cc#	.
.	.	8b	.
.	8A	4cc#	.
.	4r	.	.
24r	.	.	24ee]
24A	.	8a	[8ff
24A	.	.	.
24A	.	.	.
=123	=123	=123	=123
8A	2.r	8g#	8ff]
8r	.	8r	8ee
24A	.	8g	[8ee
24A	.	.	.
24A	.	.	.
8A	.	8f#	8ee]
8r	.	8r	8dd#
24A	.	8f	[8dd
24A	.	.	.
24A	.	.	.
=124	=124	=124	=124
4.A	2.r	[4.e	8.dd]
.	.	.	16cc#
.	.	.	8b
8AA	.	8e]	8cc#
4r	.	8r	4r
.	.	24bb-	.
.	.	24bb-	.
.	.	24bb-	.
=125	=125	=125	=125
2.r	2.r	8bb-	2.r
.	.	8r	.
.	.	24bb-	.
.	.	24bb-	.
.	.	24bb-	.
.	.	8bb-	.
.	.	8r	.
.	.	24bb-	.
.	.	24bb-	.
.	.	24bb-	.
=126	=126	=126	=126
2e	2b- 2g	4.bb-	3..r
.	.	8cc#	.
4r	4r	4r	.
.	.	.	24r
.	.	.	24fff
.	.	.	24fff
.	.	.	24fff
=127	=127	=127	=127
2.r	2.r	2.r	8fff
.	.	.	8r
.	.	.	24fff
.	.	.	24fff
.	.	.	24fff
.	.	.	8fff
.	.	.	8r
.	.	.	24fff
.	.	.	24fff
.	.	.	24fff
=128	=128	=128	=128
2.B	[3..g#	2f 2d	4.fff
.	.	.	8gg#
.	.	8r	8r
.	24g#]	.	.
.	8dd	8ff	8gg#
=129	=129	=129	=129
8A	8a	8.ff	8.aa
2r	3..r	.	.
.	.	16ee	16gg
.	.	8dd	8ff
.	.	8.g	8.ee
.	.	16f	16dd
24B-	.	8e	8cc#
24B-	.	.	.
24B-	24r	.	.
=130	=130	=130	=130
8B-	2.r	[2.e	[2.cc#
8r	.	.	.
24B-	.	.	.
24B-	.	.	.
24B-	.	.	.
8B-	.	.	.
8r	.	.	.
24B-	.	.	.
24B-	.	.	.
24B-	.	.	.
=131	=131	=131	=131
4.B-	3..r	8e]	8cc#]
.	.	8cc#	8ee
.	.	8ee	8gg
8C#	.	8gg	8bb-
4r	.	4r	4r
.	24r	.	.
.	24f	.	.
.	24f	.	.
.	24f	.	.
=132	=132	=132	=132
2.r	8f	[2.b	[2.gg#
.	8r	.	.
.	24f	.	.
.	24f	.	.
.	24f	.	.
.	8f	.	.
.	8r	.	.
.	24f	.	.
.	24f	.	.
.	24f	.	.
=133	=133	=133	=133
2.r	4.f	8b]	8gg#]
.	.	8gg#	8bb
.	.	8bb	8ddd
.	8G#	8ddd	8fff
.	4r	4r	4r
=134	=134	=134	=134
8A	8A	8d	8f
4r	4r	4r	4r
8AA	8A	8c#	8e
4r	4r	4r	4r
=135	=135	=135	=135
8D	8A	8d	8d
3..r	3..r	3..r	8r
.	.	.	24aa
.	.	.	24aa
.	.	.	24aa
.	.	.	8aa
.	.	.	8r
.	.	.	24aa
.	.	.	24aa
24r	24r	24r	24aa
=136	=136	=136	=136
4.r	4.r	4r	8aa
.	.	.	8r
.	.	8d	8f
4.A	[4.A	8d	8f
.	.	8e	8g
.	.	8c#	8e
=137	=137	=137	=137
8D	8A]	8f	8a
3..r	3..r	8r	8r
.	.	24a	24aa
.	.	24a	24aa
.	.	24a	24aa
.	.	8a	8aa
.	.	8r	8r
.	.	24a	24aa
.	.	24a	24aa
24r	24r	24a	24aa
=138	=138	=138	=138
4.r	4r	8a	8aa
.	.	3..r	8r
.	8F	.	8d
4.AA	8F	.	8d
.	8G	.	8e
.	8E	.	8c#
.	.	24r	.
=139	=139	=139	=139
[2.DD	2.F#	4.d	8d
.	.	.	2r
.	.	4.c	.
.	.	.	24ddd
.	.	.	24ddd
.	.	.	24ddd
=140	=140	=140	=140
2.DD_	[2.G	4.B	8ddd
.	.	.	8r
.	.	.	24ddd
.	.	.	24ddd
.	.	.	24ddd
.	.	[4.B-	8ddd
.	.	.	8r
.	.	.	24ddd
.	.	.	24ddd
.	.	.	24ddd
=141	=141	=141	=141
2.DD_	4.G]	4.B-]	2.ddd
.	4F#	4A	.
.	8E	8G	.
=142	=142	=142	=142
4DD]	4F#	4A	4dd
2r	2r	2r	2r
==	==	==	==
*-	*-	*-	*-
!!!RWG1: This file contains only pitch and duration data.
!!!RWG2: Transposing instruments are not transposed.
!!!RWG3: Spines may have incompatible meters.
!!!RWG4: Durations of rests and tied notes may be interpreted.
!!!RWG: Key is interpreted using the Humdrum key tool.
!!!AFT: stage1
!!!END: 1997/04/15
!!!KEY: 115331175
!!!EMD: Converted from MuseData to Humdrum Dec 16, 2000, by Andreas Kornstaedt using muse2kern.
!!!EMD: Manual editing by Craig Sapp, Nov 2001
